X:73
T:Candy Gal.tef
C:
N:Transcribed by Vance Henry
R:bluegrass
L:1/8
Q:1/4=180
M:4/4
K:A
[eA][eB] | "A"[e2c2] [f2A2] [e2A2] [e2c2] | [e^d][ee] [ee][ee] [e2e2] [eA][eB] | 
[e2c2] f2 [eA][fA] [e2A2] | "E"[eB][ec] [ec][eB] "A"[e2A2] [eA][eB] | [e2c2] (3fgf e2 [e2c2] | 
[e^d][ee] [ee][ee] [e4e4] | =c^c af ec AB | "E"=c/^c3/2 B2 "A"[e4A4] | A,C E[AA] [AF]G A2 | 
[=c^D][^cE] [cE][cE] [c4E4] | A,C E[AA] [AF]G AB | "E"=c^c cB "A"A4 | A,C E[AA] [AF]G AB | 
[=c^D][^cE] [cE][cE] [c2E2] AB | "E"ce cB "A"AF EA | [A=G][AA] [AA][AA] [A4A4] | 
A,C E[AA] [AF]G A2 | [=c^D][^cE] [cE][cE] [c4E4] | A,C E[AA] [AF]G AB | "E"=c^c cB "A"A4 | 
A,C E[AA] [AF]G AB | [=c^D][^cE] [cE][cE] [c2E2] AB | ce cB AF EA | "E"[A=G][AA] [AA]"A"[AA] [A4A4] | 


